public_html/images/symbols/Resonancia_Atenuacion_Serie.svg

<?xml version="1.0" encoding="UTF-8" standalone="no"?>
<svg
   xmlns:dc="http://purl.org/dc/elements/1.1/"
   xmlns:cc="http://creativecommons.org/ns#"
   xmlns:rdf="http://www.w3.org/1999/02/22-rdf-syntax-ns#"
   xmlns:svg="http://www.w3.org/2000/svg"
   xmlns="http://www.w3.org/2000/svg"
   xmlns:xlink="http://www.w3.org/1999/xlink"
   xmlns:sodipodi="http://sodipodi.sourceforge.net/DTD/sodipodi-0.dtd"
   xmlns:inkscape="http://www.inkscape.org/namespaces/inkscape"
   width="10000"
   height="2500"
   viewBox="0 -2728.8 9999.9997 2500"
   role="img"
   focusable="false"
   aria-labelledby="MathJax-SVG-1-Title"
   version="1.1"
   id="svg76"
   sodipodi:docname="Resonancia_Atenuacion_Serie.svg"
   inkscape:version="0.92.1 r15371">
  <metadata
     id="metadata80">
    <rdf:RDF>
      <cc:Work
         rdf:about="">
        <dc:format>image/svg+xml</dc:format>
        <dc:type
           rdf:resource="http://purl.org/dc/dcmitype/StillImage" />
        <dc:title>{\displaystyle {\begin{aligned}\alpha &amp;={\frac {R}{2L}}\\\omega _{0}&amp;={\frac {1}{\sqrt {LC}}}\,.\end{aligned}}}</dc:title>
      </cc:Work>
    </rdf:RDF>
  </metadata>
  <sodipodi:namedview
     pagecolor="#ffffff"
     bordercolor="#666666"
     borderopacity="1"
     objecttolerance="10"
     gridtolerance="10"
     guidetolerance="10"
     inkscape:pageopacity="0"
     inkscape:pageshadow="2"
     inkscape:window-width="1920"
     inkscape:window-height="1051"
     id="namedview78"
     showgrid="false"
     inkscape:zoom="0.095249628"
     inkscape:cx="5382.5697"
     inkscape:cy="1655.8147"
     inkscape:window-x="-9"
     inkscape:window-y="-9"
     inkscape:window-maximized="1"
     inkscape:current-layer="g74" />
  <title
     id="MathJax-SVG-1-Title">{\displaystyle {\begin{aligned}\alpha &amp;={\frac {R}{2L}}\\\omega _{0}&amp;={\frac {1}{\sqrt {LC}}}\,.\end{aligned}}}</title>
  <defs
     aria-hidden="true"
     id="defs14">
    <path
       id="E1-MJMATHI-3B1"
       d="m 34,156 q 0,114 86,200 86,86 189,86 70,0 112,-40 42,-40 57,-98 6,-29 7,-67 v -29 q 49,74 75,166 4,14 6,16 2,2 16,3 21,0 21,-8 0,-9 -9,-39 -9,-30 -36,-85 -27,-55 -61,-100 l -11,-14 1,-24 q 2,-56 8,-76 6,-20 19,-21 14,2 26,11 12,9 17,23 2,7 5,8 3,1 15,2 20,0 20,-8 0,-6 -6,-19 Q 579,19 556,5 533,-9 512,-10 h -7 q -67,0 -91,72 l -3,7 -11,-8 Q 390,53 370,41 350,29 325,18 300,7 267,-2 234,-11 203,-11 124,-11 79,39 34,89 34,156 Z M 208,26 q 49,0 98,21 49,21 73,43 l 24,22 q -2,143 -7,178 -14,115 -92,115 -69,0 -121,-73 -27,-40 -44,-108 -17,-68 -18,-104 0,-49 25,-71 25,-22 62,-23 z"
       inkscape:connector-curvature="0"
       style="stroke-width:1" />
    <path
       id="E1-MJMAIN-3D"
       d="m 56,347 q 0,13 14,20 h 637 q 15,-8 15,-20 0,-11 -14,-19 L 390,327 H 72 q -16,5 -16,20 z m 0,-194 q 0,15 16,20 h 636 q 14,-10 14,-20 0,-13 -15,-20 H 70 q -14,7 -14,20 z"
       inkscape:connector-curvature="0"
       style="stroke-width:1" />
    <path
       id="E1-MJMATHI-52"
       d="m 230,637 q -27,0 -32,1 -5,1 -5,11 0,27 11,33 2,1 174,1 172,-1 186,-3 56,-8 94,-28 38,-20 54,-46 16,-26 21,-43 5,-17 6,-34 0,-45 -29,-84 -29,-39 -67,-60 -38,-21 -67,-34 -29,-13 -38,-13 l 7,-5 q 67,-38 67,-110 0,-11 -5,-61 -5,-50 -5,-82 v -9 q 0,-18 1,-28 1,-10 11,-18 10,-8 26,-9 28,0 46,22 18,22 26,47 5,14 8,17 3,3 15,3 20,0 20,-12 0,-18 -24,-57 -38,-57 -90,-57 h -9 q -61,0 -101,25 -40,25 -44,78 0,27 15,84 15,57 15,73 0,51 -43,74 -15,7 -25,8 -10,1 -71,2 H 309 L 277,193 Q 244,61 244,59 q 0,-4 1,-5 1,-1 7,-4 6,-3 17,-2 11,1 33,-2 h 31 q 6,-8 6,-9 0,-1 -3,-18 Q 332,6 326,0 H 311 Q 275,2 180,2 146,2 117,2 88,2 71,2 54,2 50,1 33,1 33,10 q 0,2 3,14 5,19 10,21 4,1 15,1 h 6 q 27,0 60,3 14,3 19,12 3,4 72,278 69,274 69,289 0,7 -57,9 z m 400,-83 q 0,32 -21,54 -21,22 -86,28 -2,0 -23,0 -21,0 -38,1 h -22 q -47,0 -54,-10 -1,-3 -34,-133 -33,-130 -33,-133 0,-1 69,-1 78,1 104,7 64,10 100,59 16,23 27,60 11,37 11,68 z"
       inkscape:connector-curvature="0"
       style="stroke-width:1" />
    <path
       id="E1-MJMAIN-32"
       d="m 109,429 q -27,0 -43,18 -16,18 -16,44 0,71 53,123 53,52 132,52 91,0 152,-56 61,-56 62,-145 0,-43 -20,-82 -20,-39 -48,-68 -28,-29 -80,-74 -36,-31 -100,-92 l -59,-56 76,-1 q 157,0 167,5 7,2 24,89 v 3 h 40 v -3 Q 448,183 436,95 424,7 421,3 V 0 H 50 v 19 12 q 0,7 6,15 6,8 30,35 29,32 50,56 9,10 34,37 25,27 34,37 9,10 29,33 20,23 28,34 8,11 23,30 15,19 21,32 6,13 15,29 9,16 13,32 4,16 7,30 3,14 3,33 0,63 -34,109 -34,46 -97,46 -33,0 -58,-17 -25,-17 -35,-33 -10,-16 -10,-19 0,-1 5,-1 18,0 37,-14 19,-14 19,-46 0,-25 -16,-42 -16,-17 -45,-18 z"
       inkscape:connector-curvature="0"
       style="stroke-width:1" />
    <path
       id="E1-MJMATHI-4C"
       d="m 228,637 q -34,0 -36,4 -1,2 -1,8 0,24 11,33 2,1 15,1 54,-3 127,-3 141,0 162,3 h 12 q 6,-6 6,-9 0,-3 -2,-18 -5,-15 -9,-19 h -38 q -69,-1 -81,-9 -7,-4 -14,-28 Q 373,576 313,336 297,271 279,198 261,125 252,88 l -9,-36 q 0,-4 9,-4 9,0 59,-2 h 17 q 32,0 51,1 19,1 49,7 30,6 50,18 20,12 44,34 24,22 42,55 16,30 30,67 14,37 17,42 5,3 17,3 h 13 q 6,-9 6,-11 0,-2 -20,-59 Q 607,146 583,83 559,20 557,9 555,4 553,3 551,2 537,0 523,-2 494,-1 483,-1 418,-1 353,-1 294,0 H 116 q -84,0 -84,10 0,7 2,14 5,19 10,21 4,1 15,1 h 6 q 27,0 60,3 14,3 19,12 3,4 72,278 69,274 69,289 0,7 -57,9 z"
       inkscape:connector-curvature="0"
       style="stroke-width:1" />
    <path
       id="E1-MJMATHI-3C9"
       d="m 495,384 q 0,22 19,40 19,18 41,19 19,0 34,-18 15,-18 15,-61 0,-30 -12,-86 Q 580,222 555,155 530,88 483,38 436,-12 377,-11 q -80,0 -110,77 -1,2 -7,-5 -59,-72 -135,-72 -110,0 -110,150 0,91 41,186 41,95 67,109 12,7 24,2 13,-7 13,-18 0,-12 -20,-39 -20,-27 -46,-73 -26,-46 -32,-98 -1,-6 -1,-21 0,-63 24,-87 24,-24 58,-24 58,0 102,53 l 8,8 v 19 q 5,141 64,141 31,0 31,-36 0,-18 -10,-48 -10,-30 -20,-55 l -10,-23 q 1,-2 2,-6 1,-4 8,-14 7,-10 16,-18 9,-8 24,-14 15,-6 35,-7 63,0 108,72 45,72 45,126 0,31 -13,51 -13,20 -25,32 -12,12 -13,27 z"
       inkscape:connector-curvature="0"
       style="stroke-width:1" />
    <path
       id="E1-MJMAIN-30"
       d="m 96,585 q 56,81 153,81 48,0 96,-26 48,-26 78,-92 37,-83 37,-228 0,-155 -43,-237 -20,-42 -55,-67 -35,-25 -61,-31 -26,-6 -51,-7 -26,0 -52,6 -26,6 -61,32 -35,26 -55,67 -43,82 -43,237 0,174 57,265 z m 225,12 q -30,32 -71,32 -42,0 -72,-32 -25,-26 -33,-72 -8,-46 -8,-192 0,-158 8,-208 8,-50 36,-79 28,-30 69,-30 40,0 68,30 29,30 36,84 7,54 8,203 0,145 -8,191 -8,46 -33,73 z"
       inkscape:connector-curvature="0"
       style="stroke-width:1" />
    <path
       id="E1-MJMAIN-31"
       d="m 213,578 -13,-5 q -14,-5 -40,-10 -26,-5 -58,-7 H 83 v 46 h 19 q 47,2 87,15 40,13 56,24 16,11 28,22 2,3 12,3 9,0 17,-6 V 361 l 1,-300 q 7,-7 12,-9 5,-2 24,-4 19,-2 62,-2 h 26 V 0 H 416 Q 395,3 257,3 121,3 100,0 H 88 v 46 h 26 q 22,0 38,0 16,0 25,1 9,1 16,3 7,2 8,2 1,0 6,5 5,5 6,4 z"
       inkscape:connector-curvature="0"
       style="stroke-width:1" />
    <path
       id="E1-MJMATHI-43"
       d="m 50,252 q 0,115 67,221 67,106 169,168 102,62 204,63 90,0 143,-51 9,-10 15,-17 6,-7 8,-10 l 1,-3 q 3,0 27,26 7,6 15,14 8,8 16,16 8,8 10,11 l 15,15 h 6 q 14,0 14,-7 0,-4 -32,-137 -36,-139 -36,-140 -2,-5 -5,-6 -3,-1 -18,-2 h -16 q -6,6 -6,9 0,1 1,7 1,6 2,20 1,14 1,32 0,71 -32,124 -32,53 -109,54 -26,0 -56,-7 -30,-7 -72,-24 -42,-17 -83,-56 -41,-39 -73,-93 -32,-57 -51,-133 -19,-76 -19,-124 0,-114 76,-164 48,-34 118,-34 91,0 162,68 71,68 94,148 4,13 6,15 2,2 16,2 20,0 20,-9 0,-5 -1,-9 Q 618,132 523,55 428,-22 319,-22 206,-22 128,53 50,128 50,252 Z"
       inkscape:connector-curvature="0"
       style="stroke-width:1" />
    <path
       id="E1-MJMAIN-221A"
       d="m 95,178 q -6,0 -14,8 -8,8 -9,14 -1,6 31,30 32,24 66,50 34,26 38,29 2,2 5,2 h 1 q 6,0 14,-17 8,-17 54,-117 19,-43 31,-69 l 85,-185 q 1,0 104,213 103,213 206,429 103,216 107,221 6,14 20,14 7,0 12,-6 5,-6 7,-12 v -6 L 620,293 385,-193 q -4,-7 -19,-7 -9,0 -12,3 -2,2 -98,212 L 160,225 144,214 Q 129,202 113,190 97,178 95,178 Z"
       inkscape:connector-curvature="0"
       style="stroke-width:1" />
    <path
       id="E1-MJMAIN-2E"
       d="m 78,60 q 0,24 17,42 17,18 43,18 24,0 42,-16 Q 198,88 199,61 199,36 182,18 165,0 139,0 113,0 96,17 79,34 78,60 Z"
       inkscape:connector-curvature="0"
       style="stroke-width:1" />
  </defs>
  <g
     transform="matrix(1,0,0,-1,0,-2455.3999)"
     aria-hidden="true"
     id="g74"
     style="fill:currentColor;stroke:currentColor;stroke-width:0">
    <g
       transform="translate(156.50127,-62.992372)"
       id="g72">
      <g
         transform="translate(-11)"
         id="g24">
        <g
           transform="translate(0,-1065)"
           id="g22">
          <use
             xlink:href="#E1-MJMATHI-3C9"
             x="0"
             y="0"
             id="use18"
             width="100%"
             height="100%" />
          <use
             transform="scale(0.707)"
             xlink:href="#E1-MJMAIN-30"
             x="880"
             y="-213"
             id="use20"
             width="100%"
             height="100%" />
        </g>
      </g>
      <g
         transform="translate(1065)"
         id="g70">
        <g
           transform="translate(0,1285)"
           id="g42">
          <g
             transform="translate(1334)"
             id="g40">
            <g
               transform="translate(120)"
               id="g38">
              <g
                 transform="translate(60,-704)"
                 id="g36" />
            </g>
          </g>
        </g>
        <g
           transform="translate(0,-1065)"
           id="g68">
          <use
             xlink:href="#E1-MJMAIN-3D"
             x="277"
             y="0"
             id="use44"
             width="100%"
             height="100%" />
          <g
             transform="translate(1334)"
             id="g64">
            <g
               transform="translate(120)"
               id="g62">
              <rect
                 width="2395"
                 height="60"
                 x="0"
                 y="220"
                 id="rect46"
                 style="stroke:none" />
              <use
                 xlink:href="#E1-MJMAIN-31"
                 x="947"
                 y="676"
                 id="use48"
                 width="100%"
                 height="100%" />
              <g
                 transform="translate(60,-929)"
                 id="g60">
                <use
                   xlink:href="#E1-MJMAIN-221A"
                   x="0"
                   y="47"
                   id="use50"
                   width="100%"
                   height="100%" />
                <rect
                   width="1442"
                   height="60"
                   x="833"
                   y="788"
                   id="rect52"
                   style="stroke:none" />
                <g
                   transform="translate(833)"
                   id="g58">
                  <use
                     xlink:href="#E1-MJMATHI-4C"
                     x="0"
                     y="0"
                     id="use54"
                     width="100%"
                     height="100%" />
                  <use
                     xlink:href="#E1-MJMATHI-43"
                     x="681"
                     y="0"
                     id="use56"
                     width="100%"
                     height="100%" />
                </g>
              </g>
            </g>
          </g>
        </g>
      </g>
    </g>
    <g
       style="fill:currentColor;stroke:currentColor;stroke-width:0"
       transform="translate(5950.7316,-2590.5859)"
       id="g72-7">
      <g
         transform="translate(-11)"
         id="g24-6">
        <use
           xlink:href="#E1-MJMATHI-3B1"
           x="435"
           y="1285"
           id="use16-2"
           width="100%"
           height="100%" />
        <g
           transform="translate(0,-1065)"
           id="g22-3" />
      </g>
      <g
         transform="translate(1065)"
         id="g70-8">
        <g
           transform="translate(0,1285)"
           id="g42-1">
          <use
             xlink:href="#E1-MJMAIN-3D"
             x="277"
             y="0"
             id="use26-3"
             width="100%"
             height="100%" />
          <g
             transform="translate(1334)"
             id="g40-1">
            <g
               transform="translate(120)"
               id="g38-0">
              <rect
                 width="1302"
                 height="60"
                 x="0"
                 y="220"
                 id="rect28-5"
                 style="stroke:none" />
              <use
                 xlink:href="#E1-MJMATHI-52"
                 x="271"
                 y="676"
                 id="use30-1"
                 width="100%"
                 height="100%" />
              <g
                 transform="translate(60,-704)"
                 id="g36-3">
                <use
                   xlink:href="#E1-MJMAIN-32"
                   x="0"
                   y="0"
                   id="use32-2"
                   width="100%"
                   height="100%" />
                <use
                   xlink:href="#E1-MJMATHI-4C"
                   x="500"
                   y="0"
                   id="use34-3"
                   width="100%"
                   height="100%" />
              </g>
            </g>
          </g>
        </g>
        <g
           transform="translate(0,-1065)"
           id="g68-0">
          <g
             transform="translate(1334)"
             id="g64-8">
            <g
               transform="translate(120)"
               id="g62-8">
              <g
                 transform="translate(60,-929)"
                 id="g60-4">
                <g
                   transform="translate(833)"
                   id="g58-4" />
              </g>
            </g>
          </g>
        </g>
      </g>
    </g>
  </g>
</svg>

<?xml version="1.0" encoding="UTF-8" standalone="no"?>
<svg
   xmlns:dc="http://purl.org/dc/elements/1.1/"
   xmlns:cc="http://creativecommons.org/ns#"
   xmlns:rdf="http://www.w3.org/1999/02/22-rdf-syntax-ns#"
   xmlns:svg="http://www.w3.org/2000/svg"
   xmlns="http://www.w3.org/2000/svg"
   xmlns:xlink="http://www.w3.org/1999/xlink"
   xmlns:sodipodi="http://sodipodi.sourceforge.net/DTD/sodipodi-0.dtd"
   xmlns:inkscape="http://www.inkscape.org/namespaces/inkscape"
   width="13.505ex"
   height="11.509ex"
   style="vertical-align: -5.171ex;"
   viewBox="0 -2728.8 5814.7 4955.4"
   role="img"
   focusable="false"
   aria-labelledby="MathJax-SVG-1-Title"
   version="1.1"
   id="svg76"
   sodipodi:docname="Resonancia_Atenuacion_Serie.svg"
   inkscape:version="0.92.1 r15371">
  <metadata
     id="metadata80">
    <rdf:RDF>
      <cc:Work
         rdf:about="">
        <dc:format>image/svg+xml</dc:format>
        <dc:type
           rdf:resource="http://purl.org/dc/dcmitype/StillImage" />
      </cc:Work>
    </rdf:RDF>
  </metadata>
  <sodipodi:namedview
     pagecolor="#ffffff"
     bordercolor="#666666"
     borderopacity="1"
     objecttolerance="10"
     gridtolerance="10"
     guidetolerance="10"
     inkscape:pageopacity="0"
     inkscape:pageshadow="2"
     inkscape:window-width="640"
     inkscape:window-height="480"
     id="namedview78"
     showgrid="false"
     inkscape:zoom="0.047624814"
     inkscape:cx="2907.3501"
     inkscape:cy="2477.7"
     inkscape:window-x="0"
     inkscape:window-y="0"
     inkscape:window-maximized="0"
     inkscape:current-layer="svg76" />
  <title
     id="MathJax-SVG-1-Title">{\displaystyle {\begin{aligned}\alpha &amp;={\frac {R}{2L}}\\\omega _{0}&amp;={\frac {1}{\sqrt {LC}}}\,.\end{aligned}}}</title>
  <defs
     aria-hidden="true"
     id="defs14">
    <path
       stroke-width="1"
       id="E1-MJMATHI-3B1"
       d="M34 156Q34 270 120 356T309 442Q379 442 421 402T478 304Q484 275 485 237V208Q534 282 560 374Q564 388 566 390T582 393Q603 393 603 385Q603 376 594 346T558 261T497 161L486 147L487 123Q489 67 495 47T514 26Q528 28 540 37T557 60Q559 67 562 68T577 70Q597 70 597 62Q597 56 591 43Q579 19 556 5T512 -10H505Q438 -10 414 62L411 69L400 61Q390 53 370 41T325 18T267 -2T203 -11Q124 -11 79 39T34 156ZM208 26Q257 26 306 47T379 90L403 112Q401 255 396 290Q382 405 304 405Q235 405 183 332Q156 292 139 224T121 120Q121 71 146 49T208 26Z" />
    <path
       stroke-width="1"
       id="E1-MJMAIN-3D"
       d="M56 347Q56 360 70 367H707Q722 359 722 347Q722 336 708 328L390 327H72Q56 332 56 347ZM56 153Q56 168 72 173H708Q722 163 722 153Q722 140 707 133H70Q56 140 56 153Z" />
    <path
       stroke-width="1"
       id="E1-MJMATHI-52"
       d="M230 637Q203 637 198 638T193 649Q193 676 204 682Q206 683 378 683Q550 682 564 680Q620 672 658 652T712 606T733 563T739 529Q739 484 710 445T643 385T576 351T538 338L545 333Q612 295 612 223Q612 212 607 162T602 80V71Q602 53 603 43T614 25T640 16Q668 16 686 38T712 85Q717 99 720 102T735 105Q755 105 755 93Q755 75 731 36Q693 -21 641 -21H632Q571 -21 531 4T487 82Q487 109 502 166T517 239Q517 290 474 313Q459 320 449 321T378 323H309L277 193Q244 61 244 59Q244 55 245 54T252 50T269 48T302 46H333Q339 38 339 37T336 19Q332 6 326 0H311Q275 2 180 2Q146 2 117 2T71 2T50 1Q33 1 33 10Q33 12 36 24Q41 43 46 45Q50 46 61 46H67Q94 46 127 49Q141 52 146 61Q149 65 218 339T287 628Q287 635 230 637ZM630 554Q630 586 609 608T523 636Q521 636 500 636T462 637H440Q393 637 386 627Q385 624 352 494T319 361Q319 360 388 360Q466 361 492 367Q556 377 592 426Q608 449 619 486T630 554Z" />
    <path
       stroke-width="1"
       id="E1-MJMAIN-32"
       d="M109 429Q82 429 66 447T50 491Q50 562 103 614T235 666Q326 666 387 610T449 465Q449 422 429 383T381 315T301 241Q265 210 201 149L142 93L218 92Q375 92 385 97Q392 99 409 186V189H449V186Q448 183 436 95T421 3V0H50V19V31Q50 38 56 46T86 81Q115 113 136 137Q145 147 170 174T204 211T233 244T261 278T284 308T305 340T320 369T333 401T340 431T343 464Q343 527 309 573T212 619Q179 619 154 602T119 569T109 550Q109 549 114 549Q132 549 151 535T170 489Q170 464 154 447T109 429Z" />
    <path
       stroke-width="1"
       id="E1-MJMATHI-4C"
       d="M228 637Q194 637 192 641Q191 643 191 649Q191 673 202 682Q204 683 217 683Q271 680 344 680Q485 680 506 683H518Q524 677 524 674T522 656Q517 641 513 637H475Q406 636 394 628Q387 624 380 600T313 336Q297 271 279 198T252 88L243 52Q243 48 252 48T311 46H328Q360 46 379 47T428 54T478 72T522 106T564 161Q580 191 594 228T611 270Q616 273 628 273H641Q647 264 647 262T627 203T583 83T557 9Q555 4 553 3T537 0T494 -1Q483 -1 418 -1T294 0H116Q32 0 32 10Q32 17 34 24Q39 43 44 45Q48 46 59 46H65Q92 46 125 49Q139 52 144 61Q147 65 216 339T285 628Q285 635 228 637Z" />
    <path
       stroke-width="1"
       id="E1-MJMATHI-3C9"
       d="M495 384Q495 406 514 424T555 443Q574 443 589 425T604 364Q604 334 592 278T555 155T483 38T377 -11Q297 -11 267 66Q266 68 260 61Q201 -11 125 -11Q15 -11 15 139Q15 230 56 325T123 434Q135 441 147 436Q160 429 160 418Q160 406 140 379T94 306T62 208Q61 202 61 187Q61 124 85 100T143 76Q201 76 245 129L253 137V156Q258 297 317 297Q348 297 348 261Q348 243 338 213T318 158L308 135Q309 133 310 129T318 115T334 97T358 83T393 76Q456 76 501 148T546 274Q546 305 533 325T508 357T495 384Z" />
    <path
       stroke-width="1"
       id="E1-MJMAIN-30"
       d="M96 585Q152 666 249 666Q297 666 345 640T423 548Q460 465 460 320Q460 165 417 83Q397 41 362 16T301 -15T250 -22Q224 -22 198 -16T137 16T82 83Q39 165 39 320Q39 494 96 585ZM321 597Q291 629 250 629Q208 629 178 597Q153 571 145 525T137 333Q137 175 145 125T181 46Q209 16 250 16Q290 16 318 46Q347 76 354 130T362 333Q362 478 354 524T321 597Z" />
    <path
       stroke-width="1"
       id="E1-MJMAIN-31"
       d="M213 578L200 573Q186 568 160 563T102 556H83V602H102Q149 604 189 617T245 641T273 663Q275 666 285 666Q294 666 302 660V361L303 61Q310 54 315 52T339 48T401 46H427V0H416Q395 3 257 3Q121 3 100 0H88V46H114Q136 46 152 46T177 47T193 50T201 52T207 57T213 61V578Z" />
    <path
       stroke-width="1"
       id="E1-MJMATHI-43"
       d="M50 252Q50 367 117 473T286 641T490 704Q580 704 633 653Q642 643 648 636T656 626L657 623Q660 623 684 649Q691 655 699 663T715 679T725 690L740 705H746Q760 705 760 698Q760 694 728 561Q692 422 692 421Q690 416 687 415T669 413H653Q647 419 647 422Q647 423 648 429T650 449T651 481Q651 552 619 605T510 659Q484 659 454 652T382 628T299 572T226 479Q194 422 175 346T156 222Q156 108 232 58Q280 24 350 24Q441 24 512 92T606 240Q610 253 612 255T628 257Q648 257 648 248Q648 243 647 239Q618 132 523 55T319 -22Q206 -22 128 53T50 252Z" />
    <path
       stroke-width="1"
       id="E1-MJMAIN-221A"
       d="M95 178Q89 178 81 186T72 200T103 230T169 280T207 309Q209 311 212 311H213Q219 311 227 294T281 177Q300 134 312 108L397 -77Q398 -77 501 136T707 565T814 786Q820 800 834 800Q841 800 846 794T853 782V776L620 293L385 -193Q381 -200 366 -200Q357 -200 354 -197Q352 -195 256 15L160 225L144 214Q129 202 113 190T95 178Z" />
    <path
       stroke-width="1"
       id="E1-MJMAIN-2E"
       d="M78 60Q78 84 95 102T138 120Q162 120 180 104T199 61Q199 36 182 18T139 0T96 17T78 60Z" />
  </defs>
  <g
     stroke="currentColor"
     fill="currentColor"
     stroke-width="0"
     transform="matrix(1 0 0 -1 0 0)"
     aria-hidden="true"
     id="g74">
    <g
       transform="translate(167,0)"
       id="g72">
      <g
         transform="translate(-11,0)"
         id="g24">
        <use
           xlink:href="#E1-MJMATHI-3B1"
           x="435"
           y="1285"
           id="use16" />
        <g
           transform="translate(0,-1065)"
           id="g22">
          <use
             xlink:href="#E1-MJMATHI-3C9"
             x="0"
             y="0"
             id="use18" />
          <use
             transform="scale(0.707)"
             xlink:href="#E1-MJMAIN-30"
             x="880"
             y="-213"
             id="use20" />
        </g>
      </g>
      <g
         transform="translate(1065,0)"
         id="g70">
        <g
           transform="translate(0,1285)"
           id="g42">
          <use
             xlink:href="#E1-MJMAIN-3D"
             x="277"
             y="0"
             id="use26" />
          <g
             transform="translate(1334,0)"
             id="g40">
            <g
               transform="translate(120,0)"
               id="g38">
              <rect
                 stroke="none"
                 width="1302"
                 height="60"
                 x="0"
                 y="220"
                 id="rect28" />
              <use
                 xlink:href="#E1-MJMATHI-52"
                 x="271"
                 y="676"
                 id="use30" />
              <g
                 transform="translate(60,-704)"
                 id="g36">
                <use
                   xlink:href="#E1-MJMAIN-32"
                   x="0"
                   y="0"
                   id="use32" />
                <use
                   xlink:href="#E1-MJMATHI-4C"
                   x="500"
                   y="0"
                   id="use34" />
              </g>
            </g>
          </g>
        </g>
        <g
           transform="translate(0,-1065)"
           id="g68">
          <use
             xlink:href="#E1-MJMAIN-3D"
             x="277"
             y="0"
             id="use44" />
          <g
             transform="translate(1334,0)"
             id="g64">
            <g
               transform="translate(120,0)"
               id="g62">
              <rect
                 stroke="none"
                 width="2395"
                 height="60"
                 x="0"
                 y="220"
                 id="rect46" />
              <use
                 xlink:href="#E1-MJMAIN-31"
                 x="947"
                 y="676"
                 id="use48" />
              <g
                 transform="translate(60,-929)"
                 id="g60">
                <use
                   xlink:href="#E1-MJMAIN-221A"
                   x="0"
                   y="47"
                   id="use50" />
                <rect
                   stroke="none"
                   width="1442"
                   height="60"
                   x="833"
                   y="788"
                   id="rect52" />
                <g
                   transform="translate(833,0)"
                   id="g58">
                  <use
                     xlink:href="#E1-MJMATHI-4C"
                     x="0"
                     y="0"
                     id="use54" />
                  <use
                     xlink:href="#E1-MJMATHI-43"
                     x="681"
                     y="0"
                     id="use56" />
                </g>
              </g>
            </g>
          </g>
        </g>
      </g>
    </g>
  </g>
</svg>
